!!!!SEGMENT: pl-wnifc--13846--155_anonim--piesni-polskie-i-ruskie-ludu-galicyjskiego-155-kiedy-dawniej-rano-wstalam.krn
!!!cenid: 18xx:3377
!!!COM: Anonim
!!!COM-rismID: pe30004985
!!!CDT:
!!!CNT:
!!!GTL: Pieśni polskie i ruskie ludu galicyjskiego
!!!OTL: 155. Kiedy dawnièj rano wstałam
!!!PDT: 1833
!!!AGN:
!!!SMS-siglum: PL-Wnifc
!!!SMS-shelfmark: 13846
!!!SMS-shelfwork: 155 G
!!!NIFC-rismSourceID: 1001039688
!!!NIFC-islandoraID:
!!!URL-pdf-islandora:
!!!URL-scan:
!!!OMD: poco Adagio
!!!AIN: 1 piano 1 soprn
!!!key:
**kern	**kern	**dynam	**kern	**text
*group2	*group2	*	*group1	*
*part2	*part2	*part2	*part1	*part1
*staff3	*staff2	*	*staff1	*staff1
*I"[Piano]	*I"[Piano]	*	*I"[Soprano]	*
*Ipiano	*Ipiano	*	*Isoprn	*
*ICklav	*ICklav	*	*ICvox	*
*IGacmp	*IGacmp	*	*IGsolo	*
*clefF4	*clefG2	*	*clefG2	*
*k[f#]	*k[f#]	*	*k[f#]	*
*e:	*e:	*	*e:	*
*M6/8	*M6/8	*	*M6/8	*
*>[A,B,B]	*>[A,B,B]	*	*>[A,B,B]	*
!	!	!	!LO:TX:b:B:rj:t=E.349.	!
8r	(>\16ddLL	.	(>16dd\LL	Kie-
.	16cc\JJ)	.	16cc\JJ)	.
=1	=1	=1	=1	=1
*>A	*>A	*	*>A	*
*^	*^	*	*	*
4B/	4E\ 4G\	4b/	4g\	.	4b\	-dy
8B/	8E\ 8G\	8b/	8g\	<	8b\	daw-
4B/	4E\ 4G\	(</8ggL	4g\	[	8gg\	-nièj
.	.	8ff#/)	.	>	8ff#\	ra-
8G/ 8B/	8E\	&(</8eeJ	8ryy	]	8ee\	-no
=2	=2	=2	=2	=2	=2	=2
4B/	4E\ 4A\	(4dd#X/	4.f#\&)	>	(>4dd#X\	wsta-
!	!	!LO:TX:a:t=W druku łuk zaznaczony jest nieprecyzyjnie.	!	!	!	!
8B/	8E\ 8A\	(</16cc#XLL	.	]	(>\16cc#XLL	.
.	.	16dd#/JJ)	.	.	16dd#\JJ)	.
8B/	8E\ 8G\	8ee/	8e\	.	8ee\)	-łam,
8r	8ryy	8r	8r	.	8r	.
8ryy	8F#\ 8A\ 8dn\	(</16ddnLL	8a\	.	(>\16ddnLL	we-
.	.	16ccn/JJ)	.	.	16ccn\JJ)	.
*v	*v	*	*	*	*	*
!!LO:LB:g=original
=3	=3	=3	=3	=3	=3
4G\ 4B\ 4d\	4b/	4g\	.	4b\	-so-
8G\ 8B\ 8d\	8b/	8g\	.	8b\	-[[łam]]
4E\ 4G\ 4B\ 4e\	(<8gg/L	4g\	.	(>8gg\L	ho-
.	8ff#/)	.	.	8ff#\J)	.
8E\ 8G\ 8B\	8ee/J	8g\	.	8ee\	-ża
=4	=4	=4	=4	=4	=4
*^	*	*	*	*	*
4B/	4E\ 4A\	4dd#X/	4f#\	.	(>\4dd#X	by-
8B/	8E\ 8A\	(</16cc#XLL	8f#\	.	16cc#X\LL	.
.	.	16dd#/JJ)	.	.	16dd#\JJ)	.
4B/	4E\ 4G\	8ee/	8e\	.	8ee\	-ła,
.	.	8ryy	8ryy	.	8ryy	.
8r	8ryy	8r	8ryy	.	8r	.
*	*	*v	*v	*	*	*
=5!|:	=5!|:	=5!|:	=5!|:	=5!|:	=5!|:
*>B	*>B	*>B	*	*>B	*
8r	8ryy	(>16gg\LL	.	(>\16ggLL	spie'-
.	.	16ff#\JJ)	.	16ff#\JJ)	.
!!LO:LB:g=original
=6	=6	=6	=6	=6	=6
*	*	*^	*	*	*
!	!	!	!	!LO:DY:rj	!	!
4E/ 4G/ 4c/	4C\	4ee/	4g\ 4cc\	f	4ee\	-wa-
8c/	8c\	8ee/	8g\ 8cc\	.	8ee\	-łam
4AA/ 4A/	4AA\	(</8ff#L	4cc\	.	(>\8ff#L	tań-
.	.	8ee/)	.	.	8ee\J)	.
8AA/ 8A/	8AA\	8ff#/J	8cc\	.	8ff#\	-co-
*v	*v	*	*	*	*	*
=7	=7	=7	=7	=7	=7
8GG\L	4b/ (>4gg/	(<4b\	.	(>\4gg	-wa-
(>\8G 8B\	.	.	.	.	.
8B\J) 8d\	8b/)	8g\)	.	8b/)	.
8EE/L 8E/	4b/	4g\	.	8b/	-łam,
(</8G 8B/	.	.	.	8r	.
8E/J) 8e/	8r	(>\16bLL	.	(>\16bLL	dzis-
.	.	16a\JJ)	.	16a\JJ)	.
!!LO:LB:g=original
=8	=8	=8	=8	=8	=8
*^	*	*	*	*	*
4CC/ 4C/	4.ryy	8.a/L	4e\	>	(>8.a\L	-em
.	.	16ee/Jk	.	]	16ee\Jk)	.
8C\ 8A\	.	(</8e'<L 8ee/	2ryy	.	8ee'>\	się
4.D/ 4.A/ 4.c/	4.D\	8d'</ 8dd/	.	.	(>\8dd	juz
.	.	8e'</ 8ee/	.	.	8ee\)	.
.	.	8f#'</J) 8ff#/	.	.	8ff#\	zmie-
*	*	*v	*v	*	*	*
=9	=9	=9	=9	=9	=9
4.B/	4.G\	4.g\ 4.gg\	.	4.gg\	-ni-
8GG/	8ryy	8g\ 8gg\	.	8gg\	-ła.
8ryy	4ryy	8ryy	.	8ryy	.
8r	.	8r	.	8r	.
*v	*v	*	*	*	*
=:|!	=:|!	=:|!	=:|!	=:|!
*-	*-	*-	*-	*-
!!!RDF**kern: > = above
!!!RDF**kern: < = below
!!!system-decoration: g1,[{g2}]
!!!ENC: Jędrzej Mróz
!!!END: 2021-11-12
